packages/merlin-www-assets/imports/vogue/icons/gallery-list.svg

<svg viewBox="0 0 18 18" xmlns="http://www.w3.org/2000/svg"><path d="m4 4h-4v-4h4zm14-3h-11v2h11zm-14 6h-4v4h4zm14 1h-11v2h11zm-14 6h-4v4h4zm14 1h-11v2h11z"/></svg>

<svg xmlns="http://www.w3.org/2000/svg" viewBox="0 0 18 18"><title>gallery-list</title><path d="M4 4H0V0h4v4zm14-3H7v2h11V1zM4 7H0v4h4V7zm14 1H7v2h11V8zM4 14H0v4h4v-4zm14 1H7v2h11v-2z"/></svg>
